X:1
T:Vive le vin
T:Vive le vin
T:(Canon à 4 voix)                                                                                          W.A. Mozart
%%score [ 1 2 3 4 ]
L:1/8
M:2/2
K:F
V:1 treble nm="1." snm="1."
V:2 treble nm="3." snm="3."
V:3 treble nm="3." snm="3."
V:4 treble nm="4." snm="4."
V:1
 c3 c cccc | A2 F2 z4 | c3 c cccc | A2 F2 z FFF | d4 z FFF | c4 z AAA | G2 d2 c2 E2 | FFFF FFFF | %8
w: Frères, il est grand temps de|boi- re|Main- te- nant, le- vons nos|ver- res! Vi- ve le|vin ce jus di-|vin! Vi- de ton|verre quand il est|plein! Cru- chons bou- teille ton- neau bar-|
 E2 C2 z4 | z FFF FFFF | E2 C2 z4 | z FFF A4 | z FFF B4 | z FFF AFDC | B,2 B,2 C2 C2 | F4 z FGA | %16
w: ri- ques,|Qu'on les ap- porte i- ci bien|vi- te.|Qu'on n'ou- blie rien|pour ce fes- tin|Qu'on n'ou- blie rien pour ce fes-|tin sur- tout le|vin! Il faut gou-|
 B3 G EGCE | F4 z FGA | B3 G EGCE | F2 F2 f4 | z2 F2 f4 | z2 A2 cAF_E | D2 B2 A2 G2 | F4 z2 z F | %24
w: ter le blanc et le ro-|sé Sans ou- bli-|er le rouge et le clai-|ret. Bu- vons|bu- vons,|bu- vons pour nous en|rin- cer le go-|sier! Car|
 G3 G B3 G | (FG) A2 z2 z F | G3 G B3 G | (FG) A2 c2 F2 | z4 d2 F2 | z4 c2 F2 | z2 G2 A2 B2 | %31
w: le jus de la|treil _ le nous|fe- ra voir mer-|veil _ les! Vi- ve,|vi- ve|vi- ve|vi- ve le|
 A4 z4 | c3 c cccc | A2 F2 z4 | c3 c cccc | A2 F2 z FFF | d4 z FFF | c4 z AAA | G2 d2 c2 E2 | %39
w: vin!|Frères, il est grand temps de|boi- re|Main- te- nant, le- vons nos|ver- res! Vi- ve le|vin ce jus di-|vin! Vi- de ton|verre quand il est|
 FFFF FFFF | E2 C2 z4 | z FFF FFFF | E2 C2 z4 | z FFF A4 | z FFF B4 | z FFF AFDC | B,2 B,2 C2 C2 | %47
w: plein! Cru- chons bou- teille ton- neau bar-|ri- ques,|Qu'on les ap- porte i- ci bien|vi- te.|Qu'on n'ou- blie rien|pour ce fes- tin|Qu'on n'ou- blie rien pour ce fes-|tin sur- tout le|
 F4 z FGA | B3 G EGCE | F4 z FGA | B3 G EGCE | F2 F2 f4 | z2 F2 f4 | z2 A2 cAF_E | D2 B2 A2 G2 | %55
w: vin! Il faut gou-|ter le blanc et le ro-|sé Sans ou- bli-|er le rouge et le clai-|ret. Bu- vons|bu- vons,|bu- vons pour nous en|rin- cer le go-|
 !fermata!F4 z4 |] %56
w: sier!|
V:2
 z8 | z8 | z8 | z8 | z8 | z8 | z8 | z8 | c3 c cccc | A2 F2 z4 | c3 c cccc | A2 F2 z FFF | %12
w: ||||||||Frères, il est grand temps de|boi- re|Main- te- nant, le- vons nos|ver- res! Vi- ve le|
 d4 z FFF | c4 z AAA | G2 d2 c2 E2 | FFFF FFFF | E2 C2 z4 | z FFF FFFF | E2 C2 z4 | z FFF A4 | %20
w: vin ce jus di-|vin! Vi- de ton|verre quand il est|plein! Cru- chons bou- teille ton- neau bar-|ri- ques,|Qu'on les ap- porte i- ci bien|vi- te.|Qu'on n'ou- blie rien|
 z FFF B4 | z FFF AFDC | B,2 B,2 C2 C2 | F4 z FGA | B3 G EGCE | F4 z FGA | B3 G EGCE | F2 F2 f4 | %28
w: pour ce fes- tin|Qu'on n'ou- blie rien pour ce fes-|tin sur- tout le|vin! Il faut gou-|ter le blanc et le ro-|sé Sans ou- bli-|er le rouge et le clai-|ret. Bu- vons|
 z2 F2 f4 | z2 A2 cAF_E | D2 B2 A2 G2 | F4 z2 z F | G3 G B3 G | (FG) A2 z2 z F | G3 G B3 G | %35
w: bu- vons,|bu- vons pour nous en|rin- cer le go-|sier! Car|le jus de la|treil _ le nous|fe- ra voir mer-|
 (FG) A2 c2 F2 | z4 d2 F2 | z4 c2 F2 | z2 G2 A2 B2 | A4 z4 | c3 c cccc | A2 F2 z4 | c3 c cccc | %43
w: veil _ les! Vi- ve,|vi- ve|vi- ve|vi- ve le|vin!|Frères, il est grand temps de|boi- re|Main- te- nant, le- vons nos|
 A2 F2 z FFF | d4 z FFF | c4 z AAA | G2 d2 c2 E2 | FFFF FFFF | E2 C2 z4 | z FFF FFFF | E2 C2 z4 | %51
w: ver- res! Vi- ve le|vin ce jus di-|vin! Vi- de ton|verre quand il est|plein! Cru- chons bou- teille ton- neau bar-|ri- ques,|Qu'on les ap- porte i- ci bien|vi- te.|
 z FFF A4 | z FFF B4 | z FFF AFDC | B,2 B,2 C2 C2 | !fermata!F4 z4 |] %56
w: Qu'on n'ou- blie rien|pour ce fes- tin|Qu'on n'ou- blie rien pour ce fes-|tin sur- tout le|vin!|
V:3
 z8 | z8 | z8 | z8 | z8 | z8 | z8 | z8 | z8 | z8 | z8 | z8 | z8 | z8 | z8 | z8 | c3 c cccc | %17
w: ||||||||||||||||Frères, il est grand temps de|
 A2 F2 z4 | c3 c cccc | A2 F2 z FFF | d4 z FFF | c4 z AAA | G2 d2 c2 E2 | FFFF FFFF | E2 C2 z4 | %25
w: boi- re|Main- te- nant, le- vons nos|ver- res! Vi- ve le|vin ce jus di-|vin! Vi- de ton|verre quand il est|plein! Cru- chons bou- teille ton- neau bar-|ri- ques,|
 z FFF FFFF | E2 C2 z4 | z FFF A4 | z FFF B4 | z FFF AFDC | B,2 B,2 C2 C2 | F4 z FGA | B3 G EGCE | %33
w: Qu'on les ap- porte i- ci bien|vi- te.|Qu'on n'ou- blie rien|pour ce fes- tin|Qu'on n'ou- blie rien pour ce fes-|tin sur- tout le|vin! Il faut gou-|ter le blanc et le ro-|
 F4 z FGA | B3 G EGCE | F2 F2 f4 | z2 F2 f4 | z2 A2 cAF_E | D2 B2 A2 G2 | F4 z2 z F | G3 G B3 G | %41
w: sé Sans ou- bli-|er le rouge et le clai-|ret. Bu- vons|bu- vons,|bu- vons pour nous en|rin- cer le go-|sier! Car|le jus de la|
 (FG) A2 z2 z F | G3 G B3 G | (FG) A2 c2 F2 | z4 d2 F2 | z4 c2 F2 | z2 G2 A2 B2 | A4 z4 | %48
w: treil _ le nous|fe- ra voir mer-|veil _ les! Vi- ve,|vi- ve|vi- ve|vi- ve le|vin!|
 c3 c cccc | A2 F2 z4 | c3 c cccc | A2 F2 z FFF | d4 z FFF | c4 z AAA | G2 d2 c2 E2 | %55
w: Frères, il est grand temps de|boi- re|Main- te- nant, le- vons nos|ver- res! Vi- ve le|vin ce jus di-|vin! Vi- de ton|verre quand il est|
 !fermata!F4 z4 |] %56
w: plein!|
V:4
 z8 | z8 | z8 | z8 | z8 | z8 | z8 | z8 | z8 | z8 | z8 | z8 | z8 | z8 | z8 | z8 | z8 | z8 | z8 | %19
w: |||||||||||||||||||
 z8 | z8 | z8 | z8 | z8 | c3 c cccc | A2 F2 z4 | c3 c cccc | A2 F2 z FFF | d4 z FFF | c4 z AAA | %30
w: |||||Frères, il est grand temps de|boi- re|Main- te- nant, le- vons nos|ver- res! Vi- ve le|vin ce jus di-|vin! Vi- de ton|
 G2 d2 c2 E2 | FFFF FFFF | E2 C2 z4 | z FFF FFFF | E2 C2 z4 | z FFF A4 | z FFF B4 | z FFF AFDC | %38
w: verre quand il est|plein! Cru- chons bou- teille ton- neau bar-|ri- ques,|Qu'on les ap- porte i- ci bien|vi- te.|Qu'on n'ou- blie rien|pour ce fes- tin|Qu'on n'ou- blie rien pour ce fes-|
 B,2 B,2 C2 C2 | F4 z FGA | B3 G EGCE | F4 z FGA | B3 G EGCE | F2 F2 f4 | z2 F2 f4 | z2 A2 cAF_E | %46
w: tin sur- tout le|vin! Il faut gou-|ter le blanc et le ro-|sé Sans ou- bli-|er le rouge et le clai-|ret. Bu- vons|bu- vons,|bu- vons pour nous en|
 D2 B2 A2 G2 | F4 z2 z F | G3 G B3 G | (FG) A2 z2 z F | G3 G B3 G | (FG) A2 c2 F2 | z4 d2 F2 | %53
w: rin- cer le go-|sier! Car|le jus de la|treil _ le nous|fe- ra voir mer-|veil _ les! Vi- ve,|vi- ve|
 z4 c2 F2 | z2 G2 A2 B2 | !fermata!A4 z4 |] %56
w: vi- ve|vi- ve le|vin!|

